public/lock.svg

<svg width="100" height="100" viewBox="0 0 100 100" fill="none" xmlns="http://www.w3.org/2000/svg">
<path d="M50 0C22.3857 0 0 22.3857 0 50C0 77.6143 22.3857 100 50 100C77.6143 100 100 77.6143 100 50C100 22.3857 77.6143 0 50 0ZM49.6399 22.8882C56.3921 22.9203 62.5639 27.2262 65.1856 33.2337C66.0824 35.3261 66.5588 37.4756 66.5588 39.8072V45.7521H74.7498V77.1118H25.2502V45.7519H32.782C32.7138 41.5514 32.6273 36.7461 34.1003 33.2335C36.9645 26.9078 42.8877 22.856 49.6399 22.8882ZM49.2737 32.8735C45.5336 32.9522 43.067 35.7962 42.7062 39.807V45.7519H56.6345V39.7461C56.4628 35.9427 53.5842 32.9783 49.6398 32.8735C49.5177 32.8706 49.3957 32.8706 49.2737 32.8735Z" fill="white"/>
</svg>

<svg xmlns="http://www.w3.org/2000/svg" width="100" height="100" fill="none" xmlns:v="https://vecta.io/nano"><path d="M50 0C22.386 0 0 22.386 0 50s22.386 50 50 50 50-22.386 50-50S77.614 0 50 0zm-.36 22.888c6.752.032 12.924 4.338 15.546 10.345.897 2.092 1.373 4.242 1.373 6.574v5.945h8.191v31.36h-49.5v-31.36h7.532c-.068-4.2-.155-9.006 1.318-12.518 2.864-6.326 8.787-10.377 15.54-10.345zm-.366 9.985c-3.74.079-6.207 2.923-6.567 6.934v5.945h13.928v-6.006c-.172-3.803-3.05-6.768-6.995-6.873-.122-.003-.244-.003-.366 0z" fill="#fff"/></svg>
